X: 020459
T: Barrel Rafferty's
T: Master McDermott
T: McDermott's Reel
T: Josie McDermott's
R: reel
D: Kevin Griffin "Down in Doolin"
M: 4/4
L: 1/8
K: D
A | D2 ED FAAB | d2 fe dB B2 | AF ~F2 DF A2 |\
BFAF EAFE |
D2 ED FAAB | d2 fe dB B2 | AF ~F2 D2 AF |\
EGFE D3 :|
A | df~f2 dfaf | g2bf affe | dBBA Bcde |\
fdgf e2 de |
faaf g2bf | affe dB B2 | AF~F2 D2 AF | EGFE D3 :|
